assets/Lacrosse/Flat/lacrosse_flat.svg

<svg width="32" height="32" viewBox="0 0 32 32" fill="none" xmlns="http://www.w3.org/2000/svg">
<path fill-rule="evenodd" clip-rule="evenodd" d="M25.3856 7.69998L25.0956 8.19998L23.5456 7.29999L22.3556 9.34998L23.9056 10.25L23.6156 10.75L22.0656 9.84998L20.8756 11.9L21.6056 12.32L21.3156 12.82L20.5856 12.4L20.3856 12.74L19.8856 12.45L20.0856 12.11L18.4056 11.14L17.2156 13.19L19.3156 14.4L19.0256 14.9L16.9256 13.69L15.3856 16.36L14.8856 16.07L16.4256 13.4L14.3256 12.19L14.6156 11.69L16.7156 12.9L17.9056 10.85L16.2256 9.88L16.0256 10.22L15.5256 9.92999L15.7256 9.59L14.9956 9.16998L15.2856 8.66998L16.0156 9.09L17.2056 7.03998L15.6556 6.13998L15.9456 5.63998L17.4956 6.53998L18.6856 4.48999L17.1356 3.59L17.4256 3.09L18.9756 3.98999L20.1256 2L20.6256 2.28998L19.4756 4.28L21.1556 5.25L22.4756 2.97L22.9756 3.25998L21.6556 5.53998L23.3356 6.50998L24.4856 4.51999L24.9856 4.81L23.8356 6.79999L25.3856 7.69998ZM20.8556 5.75L19.1756 4.78L17.9856 6.82999L19.6656 7.79999L20.8556 5.75ZM17.7056 7.34L16.5156 9.38998L18.1956 10.36L19.3856 8.31L17.7056 7.34ZM18.6956 10.65L20.3756 11.62L21.5656 9.56998L19.8856 8.59998L18.6956 10.65ZM20.1756 8.09998L21.8556 9.06998L23.0456 7.01999L21.3656 6.04999L20.1756 8.09998Z" fill="#D3D3D3"/>
<path d="M7.15896 27.6066C6.82896 28.1966 7.02894 28.9366 7.60894 29.2766C8.18894 29.6066 8.93896 29.4066 9.27896 28.8266L15.969 17.2466L13.849 16.0266L7.15896 27.6066Z" fill="#D3D3D3"/>
<path fill-rule="evenodd" clip-rule="evenodd" d="M7.15896 27.6066C6.82896 28.1966 7.02894 28.9366 7.60894 29.2766C8.18894 29.6066 8.93896 29.4066 9.27896 28.8266L10.134 27.3465L8.01534 26.1242L7.15896 27.6066Z" fill="#533566"/>
<path fill-rule="evenodd" clip-rule="evenodd" d="M14.686 16.5083L15.969 17.2466L14.4395 19.894L12.3158 18.6804L13.792 16.1252L14.686 16.5083Z" fill="#0074BA"/>
<path fill-rule="evenodd" clip-rule="evenodd" d="M15.3829 4.30991C16.9097 1.63795 20.3183 0.639784 23.0469 2.07703L23.0487 2.078C25.939 3.61277 26.9747 7.22354 25.3472 10.0318C24.4924 11.5266 23.0543 12.4799 21.4872 12.783C20.9675 12.8892 20.5243 13.2038 20.2677 13.651L18.9071 16.012L18.9065 16.0129C18.0351 17.5194 16.1037 18.0452 14.5926 17.171C13.0863 16.2996 12.5605 14.3685 13.4343 12.8575C13.4344 12.8573 13.4342 12.8577 13.4343 12.8575L14.7935 10.499C14.7935 10.4988 14.7934 10.4991 14.7935 10.499C15.0541 10.0444 15.1051 9.5026 14.9354 9.01567L14.9344 9.01293C14.4181 7.50891 14.5306 5.80141 15.3829 4.30991ZM22.4634 3.1825C20.3321 2.06044 17.6612 2.84233 16.4682 4.93008C15.8007 6.09816 15.7131 7.43013 16.1163 8.60581C16.4059 9.43835 16.3166 10.3561 15.8777 11.121L14.5166 13.483C13.9908 14.3918 14.305 15.5605 15.2185 16.089C16.1272 16.6147 17.2955 16.3007 17.8242 15.3876C17.8243 15.3874 17.8241 15.3878 17.8242 15.3876L19.1835 13.0289C19.1836 13.0288 19.1834 13.0291 19.1835 13.0289C19.6264 12.2573 20.3823 11.7317 21.2413 11.5575L21.2472 11.5563C22.4782 11.3188 23.5982 10.5731 24.2629 9.40991L24.2649 9.40642C25.5358 7.21527 24.7318 4.38769 22.4634 3.1825Z" fill="#00A6ED"/>
<path d="M17.5 26.5C18.8807 26.5 20 25.3807 20 24C20 22.6193 18.8807 21.5 17.5 21.5C16.1193 21.5 15 22.6193 15 24C15 25.3807 16.1193 26.5 17.5 26.5Z" fill="#FF6723"/>
</svg>

<svg xmlns="http://www.w3.org/2000/svg" width="32" height="32" fill="none"><path fill="#D3D3D3" fill-rule="evenodd" d="m25.386 7.7-.29.5-1.55-.9-1.19 2.05 1.55.9-.29.5-1.55-.9-1.19 2.05.73.42-.29.5-.73-.42-.2.34-.5-.29.2-.34-1.68-.97-1.19 2.05 2.1 1.21-.29.5-2.1-1.21-1.54 2.67-.5-.29 1.54-2.67-2.1-1.21.29-.5 2.1 1.21 1.19-2.05-1.68-.97-.2.34-.5-.29.2-.34-.73-.42.29-.5.73.42 1.19-2.05-1.55-.9.29-.5 1.55.9 1.19-2.05-1.55-.9.29-.5 1.55.9L20.126 2l.5.29-1.15 1.99 1.68.97 1.32-2.28.5.29-1.32 2.28 1.68.97 1.15-1.99.5.29-1.15 1.99 1.55.9Zm-4.53-1.95-1.68-.97-1.19 2.05 1.68.97 1.19-2.05Zm-3.15 1.59-1.19 2.05 1.68.97 1.19-2.05-1.68-.97Zm.99 3.31 1.68.97 1.19-2.05-1.68-.97-1.19 2.05Zm1.48-2.55 1.68.97 1.19-2.05-1.68-.97-1.19 2.05Z" clip-rule="evenodd"/><path fill="#D3D3D3" d="M7.159 27.607c-.33.59-.13 1.33.45 1.67.58.33 1.33.13 1.67-.45l6.69-11.58-2.12-1.22-6.69 11.58Z"/><path fill="#533566" fill-rule="evenodd" d="M7.159 27.607c-.33.59-.13 1.33.45 1.67.58.33 1.33.13 1.67-.45l.855-1.48-2.119-1.223-.856 1.483Z" clip-rule="evenodd"/><path fill="#0074BA" fill-rule="evenodd" d="m14.686 16.508 1.283.739-1.53 2.647-2.123-1.214 1.476-2.555.894.383Z" clip-rule="evenodd"/><path fill="#00A6ED" fill-rule="evenodd" d="M15.383 4.31c1.527-2.672 4.935-3.67 7.664-2.233l.002.001c2.89 1.535 3.926 5.146 2.298 7.954a5.67 5.67 0 0 1-3.86 2.751c-.52.106-.963.42-1.22.868l-1.36 2.361a3.16 3.16 0 0 1-4.314 1.159 3.16 3.16 0 0 1-1.159-4.313l1.36-2.359c.26-.455.311-.996.141-1.483v-.003a5.71 5.71 0 0 1 .448-4.703Zm7.08-1.127c-2.13-1.123-4.802-.34-5.995 1.747a4.46 4.46 0 0 0-.352 3.676c.29.832.2 1.75-.238 2.515l-1.361 2.362a1.91 1.91 0 0 0 .702 2.606 1.91 1.91 0 0 0 2.605-.701l1.36-2.36s0 .001 0 0a3.067 3.067 0 0 1 2.057-1.47l.006-.002a4.421 4.421 0 0 0 3.016-2.146l.002-.004c1.27-2.19.467-5.018-1.802-6.224Z" clip-rule="evenodd"/><path fill="#FF6723" d="M17.5 26.5a2.5 2.5 0 1 0 0-5 2.5 2.5 0 0 0 0 5Z"/></svg>
